X: 14552
T: Gan Ainm
R: reel
M: 4/4
K: Dminor
|:A3B A2GE|F3G F2ED|d3e efed|efe^c A4|
A3B A2GE|F3G F2ED|d3e efed|1 efe^c d3B:|2 efe^c d3^c||
K: Dmaj
|:cAcd e3f|fgfd fefe|fgfd fefe|fga2 a4|
gefd e4|efed efec|d4 e4|efed c2cd|
efed c2A2-|Agge efec|d4 e4|efed c2cd|
efed c2A2-|Agge efec|d4 d3_B||

